svg/color/algo.svg

<?xml version="1.0" encoding="UTF-8" ?>
<!DOCTYPE svg PUBLIC "-//W3C//DTD SVG 1.1//EN" "http://www.w3.org/Graphics/SVG/1.1/DTD/svg11.dtd">
<svg width="250pt" height="250pt" viewBox="0 0 250 250" version="1.1" xmlns="http://www.w3.org/2000/svg">
<g id="#ffffffff">
<path fill="#ffffff" opacity="1.00" d=" M 0.00 0.00 L 250.00 0.00 L 250.00 250.00 L 0.00 250.00 L 0.00 0.00 M 134.74 62.54 C 111.93 101.91 89.24 141.36 66.45 180.75 C 65.12 182.92 63.69 185.08 63.01 187.56 C 70.39 187.51 77.78 187.83 85.15 187.38 C 98.41 163.69 112.21 140.30 125.77 116.78 C 130.71 107.60 136.54 98.92 141.12 89.56 C 143.16 96.70 144.77 103.96 146.91 111.07 C 147.30 112.38 147.57 113.71 147.71 115.07 C 143.52 120.92 140.62 127.58 136.71 133.62 C 127.56 149.74 118.07 165.68 108.97 181.83 C 107.88 183.68 106.48 185.42 106.13 187.60 C 113.43 187.54 120.73 187.70 128.03 187.50 C 136.94 171.79 146.09 156.21 155.05 140.53 C 155.33 143.17 156.13 145.69 156.81 148.24 C 160.84 161.26 163.34 174.73 167.70 187.64 C 174.26 187.48 180.84 187.75 187.40 187.48 C 182.58 169.34 177.66 151.23 172.88 133.08 C 171.37 127.72 169.75 122.38 168.62 116.92 C 171.76 111.56 175.00 106.25 178.00 100.80 C 179.27 98.39 181.08 96.21 181.70 93.50 C 175.11 93.52 168.52 93.74 161.95 93.37 C 159.65 83.06 156.56 72.94 154.13 62.65 C 147.67 62.39 141.21 62.58 134.74 62.54 Z" />
</g>
<g id="#000000ff">
<path fill="#000000" opacity="1.00" d=" M 134.74 62.54 C 141.21 62.58 147.67 62.39 154.13 62.65 C 156.56 72.94 159.65 83.06 161.95 93.37 C 168.52 93.74 175.11 93.52 181.70 93.50 C 181.08 96.21 179.27 98.39 178.00 100.80 C 175.00 106.25 171.76 111.56 168.62 116.92 C 169.75 122.38 171.37 127.72 172.88 133.08 C 177.66 151.23 182.58 169.34 187.40 187.48 C 180.84 187.75 174.26 187.48 167.70 187.64 C 163.34 174.73 160.84 161.26 156.81 148.24 C 156.13 145.69 155.33 143.17 155.05 140.53 C 146.09 156.21 136.94 171.79 128.03 187.50 C 120.73 187.70 113.43 187.54 106.13 187.60 C 106.48 185.42 107.88 183.68 108.97 181.83 C 118.07 165.68 127.56 149.74 136.71 133.62 C 140.62 127.58 143.52 120.92 147.71 115.07 C 147.57 113.71 147.30 112.38 146.91 111.07 C 144.77 103.96 143.16 96.70 141.12 89.56 C 136.54 98.92 130.71 107.60 125.77 116.78 C 112.21 140.30 98.41 163.69 85.15 187.38 C 77.78 187.83 70.39 187.51 63.01 187.56 C 63.69 185.08 65.12 182.92 66.45 180.75 C 89.24 141.36 111.93 101.91 134.74 62.54 Z" />
</g>
</svg>

<?xml version="1.0" encoding="utf-8"?>
<!-- Generator: Adobe Illustrator 26.0.3, SVG Export Plug-In . SVG Version: 6.00 Build 0)  -->
<svg version="1.1" id="Layer_1" xmlns="http://www.w3.org/2000/svg" xmlns:xlink="http://www.w3.org/1999/xlink" x="0px" y="0px"
	 viewBox="0 0 250 250" style="enable-background:new 0 0 250 250;" xml:space="preserve">
<style type="text/css">
	.st0{fill:#FFFFFF;}
</style>
<circle class="st0" cx="124" cy="124.5" r="125"/>
<g id="_x23_000000ff">
	<path d="M134.7,62.5c6.5,0,12.9-0.2,19.4,0.1c2.4,10.3,5.5,20.4,7.8,30.7c6.6,0.4,13.2,0.1,19.8,0.1c-0.6,2.7-2.4,4.9-3.7,7.3
		c-3,5.4-6.2,10.8-9.4,16.1c1.1,5.5,2.8,10.8,4.3,16.2c4.8,18.1,9.7,36.3,14.5,54.4c-6.6,0.3-13.1,0-19.7,0.2
		c-4.4-12.9-6.9-26.4-10.9-39.4c-0.7-2.6-1.5-5.1-1.8-7.7c-9,15.7-18.1,31.3-27,47c-7.3,0.2-14.6,0-21.9,0.1
		c0.4-2.2,1.8-3.9,2.8-5.8c9.1-16.2,18.6-32.1,27.7-48.2c3.9-6,6.8-12.7,11-18.5c-0.1-1.4-0.4-2.7-0.8-4c-2.1-7.1-3.8-14.4-5.8-21.5
		c-4.6,9.4-10.4,18-15.3,27.2c-13.6,23.5-27.4,46.9-40.6,70.6c-7.4,0.4-14.8,0.1-22.1,0.2c0.7-2.5,2.1-4.6,3.4-6.8
		C89.2,141.4,111.9,101.9,134.7,62.5z"/>
</g>
</svg>
